X:4577
T:Durham Rangers
M:4/4
L:1/8
S:Bear Sessions
K:D
FG | ABAF A2 de | f2 e2 d2 A2 | BcdB ABAF | G2 E2 E2 FG | ABAF A2 de | f
2 e2 d2 A2 | BcdB ABAG | F2 D2 D2 :|
fg | afdf afdf | edcB A2 f2 | g2 bg f2 af | g2 e2 e2 FG | ABAF A2 de | f
2 e2 d2 A2 | BcdB ABAG | F2 D2 D2 :|
